X: 3
T: Haste To The Wedding
O: from Viola Ruth
B: Lee Owens "Advanced Square Dance Figures of the West and Southwest" p.116
R: jig
Z: 2010 John Chambers <jc:trillian.mit.edu>
M: 6/8
L: 1/8
K: D
(FG) |\
"D"AFA Afe | "G"dcd fdB | "D"AFA AGF | "A7"EFE E2(F/G/) | "D"AFA Afe |
"G"dcd fdB | "A7"AFA Afe | "D"d3- d2 :: (f/g/) | afa afa | afa bgg |
"G"geg geg | geg afg | "D"a3 f3 | "G"ede fdB | "A7"AFA Afe | "D"d3- d2 :|

%%sep 1 1 500
